X:15
T:Lichtmann 15
C:W. Mozart
M:2/4
L:1/8
Q:"Allegro" 1/4=69
K:F
!mf!(A/"_energico"G/)|FF (G/F/E/F/)|GA G(G/E/)|C>C c>c|AG F(F/A/)|(G/F/E/F/) (G/F/E/F/)|
GA G>G|c>c G>G|ED C(C/E/)|GG (A/G/F/G/)|AG F"_rit."c|E>E (G/F/E/F/)|
GA !breath!HG "_a tempo"(E|F)(F//G//A//B//) c(B|A)(F//G//A//B//) c(F/G/)|A>A (B/A/G/A/)|Bc d(B/G/)|({/c}E>)E (F/E/D/E/)|
(F/A/)(G/E/) F(F//G//A//B//)|c(B A)(F//G//A//B//)|c(E F)(C/F/)|(A>c)( c/B/A/G/)|FA F|]

